src/resources/assets/note.svg

<svg xmlns="http://www.w3.org/2000/svg" width="16" height="16"><path d="M 4.5 2 C 3.121094 2 2 3.121094 2 4.5 L 2 11.5 C 2 12.878906 3.121094 14 4.5 14 L 8.171875 14 C 8.835938 14 9.46875 13.738281 9.9375 13.269531 L 13.269531 9.9375 C 13.738281 9.46875 14 8.835938 14 8.171875 L 14 4.5 C 14 3.121094 12.878906 2 11.5 2 Z M 3 4.5 C 3 3.671875 3.671875 3 4.5 3 L 11.5 3 C 12.328125 3 13 3.671875 13 4.5 L 13 8 L 10.5 8 C 9.121094 8 8 9.121094 8 10.5 L 8 13 L 4.5 13 C 3.671875 13 3 12.328125 3 11.5 Z M 9 12.75 L 9 10.5 C 9 9.671875 9.671875 9 10.5 9 L 12.75 9 C 12.695312 9.082031 12.632812 9.160156 12.5625 9.230469 L 9.230469 12.5625 C 9.160156 12.632812 9.082031 12.695312 9 12.75 Z M 9 12.75" fill="#ddd"/></svg>

<svg xmlns="http://www.w3.org/2000/svg" width="16" height="16"><path d="M4.5 2A2.502 2.502 0 002 4.5v7C2 12.879 3.121 14 4.5 14h3.672c.664 0 1.297-.262 1.765-.73l3.333-3.332c.468-.47.73-1.102.73-1.766V4.5C14 3.121 12.879 2 11.5 2zM3 4.5A1.5 1.5 0 014.5 3h7A1.5 1.5 0 0113 4.5V8h-2.5A2.502 2.502 0 008 10.5V13H4.5A1.5 1.5 0 013 11.5zm6 8.25V10.5A1.5 1.5 0 0110.5 9h2.25c-.055.082-.117.16-.188.23L9.23 12.562c-.07.07-.148.133-.23.188zm0 0" fill="#ddd"/></svg>
